X: 10481
M: 3/4
L: 1/8
K: D
(DE) |\
{DE}F2A2(Bc) | d3ef2 |\
{DE}F2A2(Bc) | d3{edcd}ef2 |\
(A>B)AF(EF) | D4 :|
|: (de) |\
f2(gf)(ed) | (c>d)(e{d}c)(BA) |\
(B>c)(dB)(AF) | (F2{GF}E2)(DE) |\
{DE}F2A2(Bc) | d3{edcd}ef2 |\
(A>B)AF(EF) | D4 :|


